usr/share/icons/biglinux-icons-material/symbolic/actions/mail-archive-symbolic.svg

<svg width="16" height="16" version="1.1" xmlns="http://www.w3.org/2000/svg">
 <path class="ColorScheme-Text" d="m2 4c-1.108 0-2 0.892-2 2v8c0 1.108 0.892 2 2 2h12c1.108 0 2-0.892 2-2v-8c0-1.108-0.892-2-2-2zm0 1h12c0.48888 0 0.87448 0.35406 0.96289 0.81641l-6.4238 5.1152c-0.30559 0.24335-0.77254 0.24335-1.0781 0l-6.4238-5.1152c0.088406-0.46235 0.47401-0.81641 0.96289-0.81641zm-1 2.0488 3.7051 2.9512-3.7051 2.9512v-5.9023zm14 0v5.9023l-3.7051-2.9512 3.7051-2.9512zm-9.502 3.584 1.1699 0.93164c0.73087 0.58201 1.9332 0.58201 2.6641 0l1.1699-0.93164 4.4609 3.5508c-0.08841 0.46235-0.47401 0.81641-0.96289 0.81641h-12c-0.48888 0-0.87448-0.35406-0.96289-0.81641l4.4609-3.5508z" fill="#363636"/>
 <path d="m3.5 0c-0.277 0-0.5 0.223-0.5 0.5s0.223 0.5 0.5 0.5h9c0.277 0 0.5-0.223 0.5-0.5s-0.223-0.5-0.5-0.5h-9zm-1 2c-0.277 0-0.5 0.223-0.5 0.5s0.223 0.5 0.5 0.5h11c0.277 0 0.5-0.223 0.5-0.5s-0.223-0.5-0.5-0.5h-11z" fill="#363636"/>
</svg>

<svg xmlns="http://www.w3.org/2000/svg" width="16" height="16"><path fill="#dedede" d="M2 4C.892 4 0 4.892 0 6v8c0 1.108.892 2 2 2h12c1.108 0 2-.892 2-2V6c0-1.108-.892-2-2-2zm0 1h12c.489 0 .874.354.963.816l-6.424 5.116a.887.887 0 0 1-1.078 0L1.037 5.816A.983.983 0 0 1 2 5zM1 7.049 4.705 10 1 12.951V7.05zm14 0v5.902L11.295 10 15 7.049zm-9.502 3.584 1.17.931c.73.582 1.933.582 2.664 0l1.17-.931 4.46 3.55A.983.983 0 0 1 14 15H2a.983.983 0 0 1-.963-.816l4.46-3.551z" class="ColorScheme-Text"/><path fill="#dedede" d="M3.5 0a.499.499 0 1 0 0 1h9a.499.499 0 1 0 0-1h-9zm-1 2a.499.499 0 1 0 0 1h11a.499.499 0 1 0 0-1h-11z"/></svg>
